X: 602
T: Tianshang hongyuen
%%abc-version 2.0
%%abcx-abcm2ps-target-version 5.9.1 (29 Sep 2008)
%%abc-creator hum2abc beta
%%abcx-conversion-date 2013/10/02 07:52:30
%%abc-edited-by Helmut Schaffrath
%%humdrum-veritas 1613525682
%%humdrum-veritas-data 3073280753
%%continueall 1
%%barnumbers 0
L: 1/8
M: 2/4
K: G
B2d e [I:setbarnb 1]| 
d B d e | 
e d c B | 
A4 | 
B2d e | 
d Bd2 | 
e d c B | 
A4 | 
A2d2 | 
B d B d | 
B d B A | 
G2F E | 
E d B A | 
G A B d | 
A G F E | 
D2z2 | 
A2A2 | 
d d B A | 
G4 | 
E d B A | 
G A B d | 
A G F E | 
D2z2 |]  



